assets/icons/noDeliveryTask.svg

<svg width="104" height="98" viewBox="0 0 104 98" fill="none" xmlns="http://www.w3.org/2000/svg">
<rect x="0.5" width="103" height="98" rx="49" fill="#F7F9C8"/>
<path d="M77.8854 67.3978C82.6601 67.3978 86.5307 63.5272 86.5307 58.7526C86.5307 53.978 82.6601 50.1074 77.8854 50.1074C73.1108 50.1074 69.2402 53.978 69.2402 58.7526C69.2402 63.5272 73.1108 67.3978 77.8854 67.3978Z" stroke="#BB9913" stroke-width="2.5" stroke-linecap="round" stroke-linejoin="round"/>
<path d="M77.8853 61.9347C79.6428 61.9347 81.0675 60.51 81.0675 58.7525C81.0675 56.995 79.6428 55.5703 77.8853 55.5703C76.1278 55.5703 74.7031 56.995 74.7031 58.7525C74.7031 60.51 76.1278 61.9347 77.8853 61.9347Z" stroke="#BB9913" stroke-width="2.5" stroke-linecap="round" stroke-linejoin="round"/>
<path d="M26.114 67.3978C30.8886 67.3978 34.7592 63.5272 34.7592 58.7526C34.7592 53.978 30.8886 50.1074 26.114 50.1074C21.3393 50.1074 17.4688 53.978 17.4688 58.7526C17.4688 63.5272 21.3393 67.3978 26.114 67.3978Z" stroke="#BB9913" stroke-width="2.5" stroke-linecap="round" stroke-linejoin="round"/>
<path d="M26.1138 61.9347C27.8713 61.9347 29.296 60.51 29.296 58.7525C29.296 56.995 27.8713 55.5703 26.1138 55.5703C24.3564 55.5703 22.9316 56.995 22.9316 58.7525C22.9316 60.51 24.3564 61.9347 26.1138 61.9347Z" stroke="#BB9913" stroke-width="2.5" stroke-linecap="round" stroke-linejoin="round"/>
<path d="M28.641 56.8313L38.4549 45.8185M76.7776 55.7759L66.1968 30.6035H60.1795M22.9336 44.3664L45.6729 55.7759M51.4298 52.6663L24.6973 38.5563L31.0617 36.8971L46.9886 40.7079" stroke="#BB9913" stroke-width="2.5" stroke-linecap="round" stroke-linejoin="round"/>
<path d="M53.6093 40.3044C53.6093 40.3044 55.752 41.3244 56.9969 43.9523H66.5417M66.5417 43.9523L64.553 36.8105H52.2776C49.1999 36.8105 46.6393 39.6811 46.3984 43.1891H56.586M66.5417 43.9523L57.1881 55.4503M64.2077 51.9051C64.3812 48.9833 70.4676 39.2136 81.36 43.6407" stroke="#BB9913" stroke-width="2.5" stroke-linecap="round" stroke-linejoin="round"/>
<path d="M51.4306 58.8852C54.6111 58.8852 57.1894 57.493 57.1894 55.7756C57.1894 54.0582 54.6111 52.666 51.4306 52.666C48.2502 52.666 45.6719 54.0582 45.6719 55.7756C45.6719 57.493 48.2502 58.8852 51.4306 58.8852Z" stroke="#BB9913" stroke-width="2.5" stroke-linecap="round" stroke-linejoin="round"/>
</svg>

<svg xmlns="http://www.w3.org/2000/svg" width="104" height="98" fill="none" viewBox="0 0 104 98"><rect width="103" height="98" x=".5" fill="#f7f9c8" rx="49"/><path stroke="#bb9913" stroke-linecap="round" stroke-linejoin="round" stroke-width="2.5" d="M77.885 67.398a8.645 8.645 0 1 0 0-17.29 8.645 8.645 0 0 0 0 17.29"/><path stroke="#bb9913" stroke-linecap="round" stroke-linejoin="round" stroke-width="2.5" d="M77.885 61.935a3.182 3.182 0 1 0 0-6.365 3.182 3.182 0 0 0 0 6.365M26.114 67.398a8.645 8.645 0 1 0 0-17.29 8.645 8.645 0 0 0 0 17.29"/><path stroke="#bb9913" stroke-linecap="round" stroke-linejoin="round" stroke-width="2.5" d="M26.114 61.935a3.182 3.182 0 1 0 0-6.365 3.182 3.182 0 0 0 0 6.365M28.641 56.831l9.814-11.013m38.323 9.958L66.197 30.603h-6.018M22.935 44.367l22.739 11.41m5.757-3.11-26.733-14.11 6.365-1.659 15.927 3.81"/><path stroke="#bb9913" stroke-linecap="round" stroke-linejoin="round" stroke-width="2.5" d="M53.61 40.304s2.142 1.02 3.387 3.648h9.545m0 0-1.989-7.142H52.278c-3.078 0-5.639 2.871-5.88 6.38h10.188m9.956.762L57.188 55.45m7.02-3.545c.173-2.922 6.26-12.691 17.152-8.264M51.43 58.885c3.181 0 5.76-1.392 5.76-3.11s-2.579-3.109-5.76-3.109-5.758 1.392-5.758 3.11 2.578 3.11 5.759 3.11"/></svg>
